public/images/logo.svg

<svg xmlns="http://www.w3.org/2000/svg" xmlns:xlink="http://www.w3.org/1999/xlink" width="120" height="48" viewBox="0 0 120 48">
    <defs>
        <path id="a" d="M6 8c-1.1 0-2 .9-2 2s.9 2 2 2 2-.9 2-2-.9-2-2-2zM2 4C.9 4 0 4.9 0 6s.9 2 2 2 2-.9 2-2-.9-2-2-2zm0 8c-1.1 0-2 .9-2 2s.9 2 2 2 2-.9 2-2-.9-2-2-2zm12-8c1.1 0 2-.9 2-2s-.9-2-2-2-2 .9-2 2 .9 2 2 2zm-4 8c-1.1 0-2 .9-2 2s.9 2 2 2 2-.9 2-2-.9-2-2-2zm4-4c-1.1 0-2 .9-2 2s.9 2 2 2 2-.9 2-2-.9-2-2-2zm-4-4c-1.1 0-2 .9-2 2s.9 2 2 2 2-.9 2-2-.9-2-2-2zM6 0C4.9 0 4 .9 4 2s.9 2 2 2 2-.9 2-2-.9-2-2-2z"/>
        <path id="c" d="M0 0h50v50H0z"/>
    </defs>
    <g fill="none" fill-rule="evenodd">
        <path fill="#00D69F" d="M0 0h48v48H0z"/>
        <g transform="translate(16 16)">
            <mask id="b" fill="#fff">
                <use xlink:href="#a"/>
            </mask>
            <g mask="url(#b)">
                <use fill="#FFF" transform="translate(-17 -17)" xlink:href="#c"/>
            </g>
        </g>
        <path fill="#FFF" fill-rule="nonzero" d="M64.075 17.2c1.267 0 2.362.283 3.287.85a5.969 5.969 0 0 1 2.163 2.275l-2.3 1.775c-.85-1.267-1.9-1.9-3.15-1.9-.583 0-1.07.137-1.463.413-.391.274-.587.67-.587 1.187 0 .433.146.78.438 1.037.291.259.787.546 1.487.863l1.875.825c1.383.617 2.408 1.296 3.075 2.038.667.741 1 1.67 1 2.787 0 1.5-.542 2.7-1.625 3.6-1.083.9-2.467 1.35-4.15 1.35-1.4 0-2.654-.33-3.763-.987a7.15 7.15 0 0 1-2.612-2.663l2.325-1.75c1.15 1.6 2.5 2.4 4.05 2.4.733 0 1.308-.163 1.725-.488.417-.325.625-.77.625-1.337 0-.333-.096-.63-.287-.888a2.047 2.047 0 0 0-.65-.587c-.242-.133-.63-.325-1.163-.575l-1.775-.8c-1.283-.583-2.27-1.25-2.962-2-.692-.75-1.038-1.667-1.038-2.75 0-1.4.517-2.53 1.55-3.387 1.033-.859 2.342-1.288 3.925-1.288zm15.65 4.15c1.75 0 3.188.608 4.313 1.825 1.124 1.217 1.687 2.758 1.687 4.625s-.563 3.417-1.688 4.65c-1.125 1.233-2.562 1.85-4.312 1.85-1.55 0-2.783-.5-3.7-1.5v5.7H72.65V21.625h3.1v1.55c.883-1.217 2.208-1.825 3.975-1.825zm-.625 9.875c.9 0 1.658-.313 2.275-.938.617-.624.925-1.445.925-2.462 0-1.033-.304-1.863-.912-2.488-.609-.625-1.371-.937-2.288-.937-.85 0-1.583.288-2.2.863-.617.574-.925 1.42-.925 2.537 0 1.1.304 1.946.913 2.537.608.592 1.345.888 2.212.888zm10.95-16.2c.6 0 1.112.2 1.538.6.425.4.637.9.637 1.5 0 .583-.212 1.075-.637 1.475-.425.4-.938.6-1.538.6-.6 0-1.108-.2-1.525-.6a1.965 1.965 0 0 1-.625-1.475c0-.6.208-1.1.625-1.5.417-.4.925-.6 1.525-.6zm1.7 6.6V34h-3.375V21.625h3.375zm9.275-.275c1.217 0 2.283.27 3.2.813A5.906 5.906 0 0 1 106.4 24.4l-2.35 1.825c-.8-1.2-1.792-1.8-2.975-1.8-.95 0-1.73.32-2.338.962-.608.642-.912 1.446-.912 2.413 0 .983.304 1.796.912 2.438.609.641 1.388.962 2.338.962 1.15 0 2.142-.592 2.975-1.775l2.35 1.8a5.97 5.97 0 0 1-2.188 2.25c-.925.55-1.987.825-3.187.825-1.85 0-3.417-.625-4.7-1.875-1.283-1.25-1.925-2.792-1.925-4.625 0-1.817.642-3.346 1.925-4.588 1.283-1.241 2.85-1.862 4.7-1.862zm12.95 0c1.617 0 2.904.454 3.863 1.362.958.909 1.437 2.221 1.437 3.938V34h-3.1v-1.2c-.95 1-2.208 1.5-3.775 1.5-1.317 0-2.358-.346-3.125-1.037-.767-.692-1.15-1.58-1.15-2.663 0-1.117.42-1.996 1.263-2.638.841-.641 1.979-.962 3.412-.962h3.1v-.55c0-.683-.196-1.217-.588-1.6-.391-.383-.962-.575-1.712-.575-1.1 0-2.192.567-3.275 1.7l-1.75-2.075c1.433-1.7 3.233-2.55 5.4-2.55zm-.675 10.475c.733 0 1.35-.23 1.85-.688.5-.458.75-1.045.75-1.762v-.15h-2.65c-1.15 0-1.725.417-1.725 1.25 0 .417.162.746.487.987.326.242.755.363 1.288.363z"/>
    </g>
</svg>

<?xml version="1.0" encoding="UTF-8" standalone="no"?>
<svg
   width="140.16907"
   height="48"
   viewBox="0 0 140.16907 48"
   version="1.1"
   id="svg21"
   sodipodi:docname="logo.svg"
   inkscape:version="1.1.2 (0a00cf5339, 2022-02-04, custom)"
   xmlns:inkscape="http://www.inkscape.org/namespaces/inkscape"
   xmlns:sodipodi="http://sodipodi.sourceforge.net/DTD/sodipodi-0.dtd"
   xmlns:xlink="http://www.w3.org/1999/xlink"
   xmlns="http://www.w3.org/2000/svg"
   xmlns:svg="http://www.w3.org/2000/svg">
  <sodipodi:namedview
     id="namedview23"
     pagecolor="#ffffff"
     bordercolor="#666666"
     borderopacity="1.0"
     inkscape:pageshadow="2"
     inkscape:pageopacity="0.0"
     inkscape:pagecheckerboard="0"
     showgrid="false"
     inkscape:zoom="2.129939"
     inkscape:cx="86.622198"
     inkscape:cy="26.057084"
     inkscape:window-width="1920"
     inkscape:window-height="1046"
     inkscape:window-x="0"
     inkscape:window-y="0"
     inkscape:window-maximized="1"
     inkscape:current-layer="svg21" />
  <defs
     id="defs4">
    <path
       id="a"
       d="M 6,8 C 4.9,8 4,8.9 4,10 4,11.1 4.9,12 6,12 7.1,12 8,11.1 8,10 8,8.9 7.1,8 6,8 Z M 2,4 C 0.9,4 0,4.9 0,6 0,7.1 0.9,8 2,8 3.1,8 4,7.1 4,6 4,4.9 3.1,4 2,4 Z m 0,8 c -1.1,0 -2,0.9 -2,2 0,1.1 0.9,2 2,2 1.1,0 2,-0.9 2,-2 C 4,12.9 3.1,12 2,12 Z M 14,4 c 1.1,0 2,-0.9 2,-2 0,-1.1 -0.9,-2 -2,-2 -1.1,0 -2,0.9 -2,2 0,1.1 0.9,2 2,2 z m -4,8 c -1.1,0 -2,0.9 -2,2 0,1.1 0.9,2 2,2 1.1,0 2,-0.9 2,-2 0,-1.1 -0.9,-2 -2,-2 z m 4,-4 c -1.1,0 -2,0.9 -2,2 0,1.1 0.9,2 2,2 1.1,0 2,-0.9 2,-2 C 16,8.9 15.1,8 14,8 Z M 10,4 C 8.9,4 8,4.9 8,6 8,7.1 8.9,8 10,8 11.1,8 12,7.1 12,6 12,4.9 11.1,4 10,4 Z M 6,0 C 4.9,0 4,0.9 4,2 4,3.1 4.9,4 6,4 7.1,4 8,3.1 8,2 8,0.9 7.1,0 6,0 Z" />
    <path
       id="c"
       d="M 0,0 H 50 V 50 H 0 Z" />
  </defs>
  <g
     fill="none"
     fill-rule="evenodd"
     id="g19">
    <path
       fill="#00d69f"
       d="M 0,0 H 48 V 48 H 0 Z"
       id="path6" />
    <g
       transform="translate(16,16)"
       id="g15">
      <mask
         id="b"
         fill="#ffffff">
        <use
           xlink:href="#a"
           id="use8"
           x="0"
           y="0"
           width="100%"
           height="100%" />
      </mask>
      <g
         mask="url(#b)"
         id="g13">
        <use
           fill="#ffffff"
           transform="translate(-17,-17)"
           xlink:href="#c"
           id="use11"
           x="0"
           y="0"
           width="100%"
           height="100%" />
      </g>
    </g>
  </g>
  <text
     xml:space="preserve"
     style="font-size:25.175px;line-height:1.25;font-family:'Beardsons Extras';-inkscape-font-specification:'Beardsons Extras';letter-spacing:1px;stroke-width:0.629375;fill:#ffffff"
     x="52.573994"
     y="33.97823"
     id="text4621"><tspan
       sodipodi:role="line"
       id="tspan4619"
       x="52.573994"
       y="33.97823"
       style="font-style:normal;font-variant:normal;font-weight:bold;font-stretch:normal;font-family:'Product Sans';-inkscape-font-specification:'Product Sans Bold';stroke-width:0.629375;fill:#ffffff">Sipend</tspan></text>
</svg>
